X:500
T: MIEN VADER HEET HANS
N: E1757
O: Europa, Mitteleuropa, Deutschland, Uckermark
R: Spott - Lied
M: 2/4
L: 1/8
K: G
D | GABc | edd
d | cBAd | B2G
D | GABc | edd
d | cBAd | B2G
G | AABB | ccd
d | AABG | d2D
D | GABc | edd
d | cBAd | B2G

@@@ Tune index: 5184
